X:121
T:RVW2/2/121  I Came From The West A Long Ways Down
C:Mr. Woolford, Ramsbury, Wiltshire, 27 August 1904
L:1/8
Q:1/4=120
M:6/8
I:linebreak $
K:D
"^(Editorial suggestion  " D | DDD D2 F | E2 D E2 d | dcA (AF)D |$[M:9/8] D2 D D3 (DE)F | 
w: I|came from the West a|long ways down to|look for a wife _ in|Lon- don town, all _ se-|
[M:6/8] E3 z z D | DDD D2 F | E2 D E2 d |$ (dc)B (AF)D | E2 E E2 (F/G/) | A2 A FGA | B2 A F2 d |$ 
w: rene. I|met with a fine young|bux- om lass, I'm|sure _ there's none _ could|her sur- pass, she's _|picked my poc- kets and|done me clean, then|
dAB (dc)B | F2 E D3 | (B,D)D DDE |$ F2 G A2 d | dBA (dc)B | F2 E !fermata!D2 |] 
w: hul- lo old chap _ it's|all ser- ene,|picked _ my poc- kets and|done me clean, then|hul- lo old chap, _ it's|all se- rene.|



